Adwaita++/emotes/16/face-angel.svg

<svg height="16" width="16" xmlns="http://www.w3.org/2000/svg">
  <path d="m8 2c-3.878 0-7 3.122-7 7s3.122 7 7 7 7-3.122 7-7-3.122-7-7-7z" fill="#ffa348"/>
  <path d="m4.5 11.05s1.2349719 1.45 3.5 1.45c2.265028 0 3.5-1.45 3.5-1.45" fill="none" stroke="#5e5c64" stroke-linecap="round" stroke-linejoin="round"/>
  <path d="m7 8.0115401c0 .5522847-.4477153 0-1 0s-1 .5522847-1 0 .4477153-1 1-1 1 .4477153 1 1z" fill="#5e5c64"/>
  <path d="m11 8.0115401c0 .5522847-.447715 0-1 0-.5522847 0-1 .5522847-1 0s.4477153-1 1-1c.552285 0 1 .4477153 1 1z" fill="#5e5c64"/>
  <path d="m8 1a6 2 0 0 0 -6 2 6 2 0 0 0 6 2 6 2 0 0 0 6-2 6 2 0 0 0 -6-2zm0 1c1.5667809 0 2.984759.2214822 3.925781.5351562.462985.1543283.801106.3355157.96875.4648438-.167644.1293281-.505765.3105155-.96875.4648438-.941022.3136739-2.3590001.5351562-3.925781.5351562s-2.9847591-.2214822-3.9257812-.5351562c-.4629849-.1543283-.8011054-.3355157-.96875-.4648438.1676446-.1293281.5057651-.3105155.96875-.4648438.9410221-.3136739 2.3590003-.5351562 3.9257812-.5351562z" fill="#f8e45c"/>
</svg>

<svg xmlns="http://www.w3.org/2000/svg" width="16" height="16" version="1">
 <path d="M 8,2 C 4.122,2 1,5.122 1,9 c 0,3.878 3.122,7 7,7 3.878,0 7,-3.122 7,-7 C 15,5.122 11.878,2 8,2 Z" style="fill:#ffa348"/>
 <path d="m 4.5,11.05 c 0,0 1.2349719,1.45 3.5,1.45 2.265028,0 3.5,-1.45 3.5,-1.45" style="fill:none;stroke:#5e5c64;stroke-linecap:round;stroke-linejoin:round"/>
 <path d="m 7,8.0115401 c 0,0.5522847 -0.4477153,0 -1,0 -0.5522847,0 -1,0.5522847 -1,0 0,-0.5522847 0.4477153,-1 1,-1 0.5522847,0 1,0.4477153 1,1 z" style="fill:#5e5c64"/>
 <path d="m 11,8.0115401 c 0,0.5522847 -0.447715,0 -1,0 -0.5522847,0 -1,0.5522847 -1,0 0,-0.5522847 0.4477153,-1 1,-1 0.552285,0 1,0.4477153 1,1 z" style="fill:#5e5c64"/>
 <path d="M 8 1 A 6 2 0 0 0 2 3 A 6 2 0 0 0 8 5 A 6 2 0 0 0 14 3 A 6 2 0 0 0 8 1 z M 8 2 C 9.5667809 2 10.984759 2.2214822 11.925781 2.5351562 C 12.388766 2.6894845 12.726887 2.8706719 12.894531 3 C 12.726887 3.1293281 12.388766 3.3105155 11.925781 3.4648438 C 10.984759 3.7785177 9.5667809 4 8 4 C 6.4332191 4 5.0152409 3.7785178 4.0742188 3.4648438 C 3.6112339 3.3105155 3.2731134 3.1293281 3.1054688 3 C 3.2731134 2.8706719 3.6112339 2.6894845 4.0742188 2.5351562 C 5.0152409 2.2214823 6.4332191 2 8 2 z" style="fill:#f8e45c"/>
</svg>
